X: 33041
T: Pride Of Petravore, The
R: hornpipe
M: 4/4
K: Aminor
A,3B, C3 D|EFED CA,3|G,3 A, B,3 C|DEDC B,G,3|
A,3 B, C3 D|EFED CA,2E|EEEE EDCB,|A,4- A,4|
|:A2 A2 A3 A|GECD E3F|EDB,C D3E|DCA,G, A,4|
A2 B2 c3A|GECD E2 CD|EEEE EDCB,|A,4- A,4:|

